X:1
T:Brandenburg Concerto No. 3
T:Brandenburg Concerto No. 3
T:First Movement
T:J.S Bach Arr. by Ronfei 
T:-Second Movement-
T:-Third Movement-
C:J.S Bach
%%score { 1 | ( 2 3 ) }
L:1/8
Q:1/4=200
M:2/2
K:G
V:1 treble nm="Piano" snm="Pno."
V:2 bass-8 
V:3 bass-8 
V:1
"^Allegro moderato" GF | G2 DC D2 GF | G2 B,A, B,2 GF | G2 G,A, B,2 ^C2 | (D^CD)E DFDG | %5
 (D^CD)E DADB | (D^CD)E DcDd | [DB]2 AG A2 GF | G2 FE DGDG | E2 DC B,GB,G | C2 B,A, G,GA,G | %11
 B,G^CG DFDG | DADB DcDd | B2 AG D2 F2 | G2 FE DCB,A, | B,2 A,G, D2 D2 | G4 z2 gf | g2 dc d2 BA | %18
 B2 GF G2 z2 | z2 d2 gbag | fade fgag | fade fgag | fade fgag | f2 ed e2 d^c | d2 ^cB AdAd | %25
 B2 AG FdFd | G2 FE DdEd | Fd^Gd A^cAc | AeAf AgAa | f2 ed A2 ^c2 | d4 z2 gf | g2 dc d2 BA | %32
 B2 GF G2 z2 | z2 Bc d2 e2 | A2 d'^c' d'2 ^c2 | d2 d'^c' d'2 ^c2 | d2 d'^c' d'2 ^c2 | d2 d2 f2 a2 | %38
 f2 d2 f2 a2 | f2 A2 dfed | ^ceAB cdef | [eg]4 z2 e2 | dfB^c defg | [fa]2 [fa]2 [fa]2 [eg]f | %44
 [eg]2 [eg]2 [eg]2 [df]e | f2 ed A2 ^c2 | (d^cd)e dfdg | (d^cd)e dadb | (fef)g fAgB | (fef)g fcBg | %50
 AGAB AgAf | [dg]4 z2 GF | G2 z2 z2 GF | [DG]2 [DG]2 [DG]2 [DG]2 | [DG]2 [DG]2 [DG]2 [DG]2 | %55
 [DG]2 [DG]2 [DG]2 [G,D]2 | [A,E][B,G][CA][DB] [Ec]2 z2 | z2 [ac']b [ac']2 [ac']2 | %58
 [ac']2 [gb]a [gb]2 [gb]2 | [eg_b]2 [=fa][eg] agfe | dBGA Bcde | (=fg/f/e/f/g) d3 c | cBcd ced=f | %63
 ede=f egfa | g=fga gagf | e=fed cedc | GFGA GBAc | BABc Bdce | dcde dedc | BcBA GBAG | %70
 D2 d^c d2 ^C2 | D2 d^c d2 E2 | F2 cB c2 BA | d2 cB c2 BA | B2 G2 z2 D2 | B,2 GF G2 BA | %76
 B2 dc d2 gf | g2 dc d2 BA | B2 GF G2 gf | g2 GA B2 ^c2 | d^cde dfdg | d^cde dadb | d^cde dc'dd' | %83
 b2 ag a2 gf | g2 fe dgdg | e2 dc BgBg | c2 BA GgAg | Bg^cg dfdg | dadb dc'dd' | b2 ag d2 f2 | %90
 g2 fe dcBA | B2 AG d2 D2 | G4 z GDE | (=FEF)d BFDG, | (=FEF)d BFDG, | (EDE)c GECG, | %96
 (EDE)c GECG, | (FEF)c AFCA, | (FEF)c AFCA, | B,DEF GAB^c | d2 D2 z dAB | (cBc)a f^dcA | %102
 (cBc)a f^dcA | (BAB)a f^dBF | (BAB)a f^dBF | (AGA)f ^dBAF | (AGA)f ^dB[Ae][Fd] | [Ge]2 BA B2 GF | %108
 G2 E^D E2 GF | G2 EF G2 A2 | B2 ^d^c d2 fe | f2 ag a2 c'b | c'2 ^d^c d2 b2 | g2 fe f2 e^d | %114
 [cc']3 [Bb] [Aa][Gg][Ff][Ee] | b2 ag f2 e^d | [Ge]2 e^d e2 B2 | [Be]2 e^d e2 B2 | %118
 [Be]2 e^d e2 B2 | g2 ef gfed | ^ceAB cded | ^ceAB cded | ^ceAB cded | ^cded cdag | %124
 f2 d'^c' d'2 d^c | d2 d'^c' d'2 d^c | d2 d'^c' d'2 d^c | d2 z2 z2 d2 | BdGA Bcdc | BdGA Bcdc | %130
 B2 gf g2 gf | g2 dc d2 BA | B2 GF GDEF | (GFG)e ^c^AGE | (GFG)e ^c^AGE | (FEF)e ^c^AF^C | %136
 (FEF)e ^c^AF^C | (EDE)^c ^AFE^C | (EDE)^c ^AFE^C | [DB]2 fe [Bf]2 b^a | [db]2 d^c [Bd]2 ba | %141
 [db]2 B^c d2 e2 | fefg fed^c | dede Te3 d | f2 b^a b2 fe | d2 ^cB c2 B^A | %146
 [Gg]3 [Ff] [Ee][Dd][^C^c][B,B] | ([df]3 g) ([A^c]3 B) | B2 z2 z4 | z2 FE F2 B^A | B2 d^c d2 fe | %151
 [df]2 [df]2 [df]2 [^ce]d | [^ce]2 [ce]2 [ce]2 [Bd]c | d3 ^c Tc3 B | B2 z2 z2 GF | G4 B4 | %156
 d4 z2 d2 | B2 d2 gbag | fgag fed^c | d2 AG A2 d^c | d2 FE F2 d^c | d2 DE F2 ^G2 | A4 z2 ^c2 | %163
 d^cde dfde | defe dcBA | BABc BdAc | Bcdc BAGF | GFGA GBFA | GABA GFED | EGFA GBAG | FGAB cdcd | %171
 Bgfe dcBA | GEDC B,A,G,A, | B,CB,A, G,2 g2 | fdfd fdfd | ecec ecec | e^cec ecec | ^dBdB dBdB | %178
 dBdB dBdB | ^cAcA cAcA | (_BAB)=f dB=FD | (_BAB)=f dB=FD | (cBc)f cAF^D | (cBc)f cAF^D | %184
 (dcd)^g dB^GE | (dcd)^g dB^GE | (cBc)a fcA^D | (cBc)a fcA^D | (BAB)a =fdBE | (BAB)a =fdBE | %190
 (BAB)^g dB^GE | (BAB)^g dBEg | [cea]2 =fe f2 cB | c2 A^G A2 [c=fc']2 | [d=fb]2 ed e2 BA | %195
 B2 GF G2 [Beb]2 | [cea]2 d^c d2 A^G | A2 =FE F2 [Ada]2 | [Be^g]2 [Bd][A^c] [Bd]2 [^GB][FA] | %199
 [^GB]2 [DG][CF] [DG]2 [Be]2 | [=FA]3 [GB] [GB]3 [FA] | A^GAB AcBd | cBcd ced=f | ede=f efed | %204
 cdcB AcBA | e^def egfa | gbac' babc' | babc' bc'ba | gagf egfe | ^d2 BA BcBA | GFGA GBAc | %211
 BABc Bdce | dedc Bgfe | d2 D2 z dAB | (cBc)a fcAD | (cBc)a fcAD | (=fef)d' bfdG | (=fef)d' bfdG | %218
 (dcd)b ^gdBE | (dcd)b ^gdBE | (GFG)e ^cGEA, | (GFG)e ^cGEA, | (_EDE)c AFEC | (_EDE)c AFEC | %224
 (B,A,B,)_A ^EDB,G, | (B,A,B,)_A ^EDB,G, | ([_Beg][Adf] [Beg]2) ([EGB][FAc] [EGB]2) | %227
 ([_Beg][Adf] [Beg]2) ([EGB][FAc] [EGB]2) | ([_Bdg][Acf] [Bdg]2) ([DGB][_EAc] [DGB]2) | %229
 ([_Bdg][Acf] [Bdg]2) ([DGB][_EAc] [DGB]2) | ([^ceg][_B^df] [Beg]2) ([EGB][DA=c] [EGB]2) | %231
 ([^ceg][_B^df] [Beg]2) ([EGB][DA=c] [EGB]2) | ([_Bdg][Acf] [Bdg]2) ([DGB][_EAc] [DB]2) | %233
 ([_Bdg][Acf] [Bdg]2) ([DGB][_EAc] [DB]2) | ([Acf][GBg] [Acf]2) ([FA][DG_B] [CFA]2) | %235
 ([Acf][GBg] [Acf]2) ([FA][DG_B] [CFA]2) |!ff! [G_Bg]2 _ed e2 BA | _B2 GF G2 [B_e_b]2 | %238
 [c_ea]2 d^c d2 AG | A2 =FE F2 [Ada]2 | [_Bdg]2 cB c2 GF | G2 _ED E2 [Gcg]2 | %242
 [cf]2 [cfa][_Bg] [cfa]2 d2 | c2 [fac'][eg_b] [dfc']2 a2 | f2 [ac'_e'][g_bd'] [fae']2 a2 | %245
 d2 [gbd'][fc'] [gbd']2 c_B | c2 [fac'][eg_b] [cac']2 AG | F2 [c_ea][_Bdg] [Acf]2 [Dd]2 | %248
 [_E_e]3 [Dd] [Cc][_B,_B][A,A][G,G] | [Ad]2 c_B A2 GF | G2 DC D2 GF | G2 B,A, B,2 GF | %252
 G2 G,A, B,2 ^C2 | (D^CD)E DFDG | (D^CD)E DADB | (D^CD)E DcDd | B2 AG A2 GF | G2 FE DGDG | %258
 E2 DC B,GB,G | C2 B,A, G,GA,G | B,G^CG DFDG | DADB DcDd | B2 AG D2 F2 | G2 z2 z4 | z2 DC D2 GF | %265
 G2 BA B2 dc | d2 gf g2 ba | b2 ag fedf | g2 fe dcBA | G2 FE DCB,A, | B,2 A,G, D2 D2 | %271
 !fermata!G,6 z2 |][Q:1/4=80]"^Adagio"!mf! [A,EA]8 | [^DFB]8 |] %274
[M:6/8]!mf![Q:1/4=120]"^Allegro" G/F/G/A/B/c/ d/e/d/c/B/A/ | Bdg f/g/f/e/d/c/ | Bdg f/g/f/e/d/c/ | %277
 Bdg f/g/f/e/d/c/ |!f! b/c'/b/a/g/f/ e/d/e/f/g/e/ | a/b/a/g/f/e/ d/^c/d/e/f/d/ | %280
 g/a/g/f/e/d/!>(! ^c/B/c/d/e/c/!>)! |!mf! [Ad]fa [A^c]ea | [Ad]fa [EA]ea | %283
!f! d/^c/d/e/f/g/ a/b/a/g/f/e/ | [Ad]fA [Ae]gA |!>(! [Ad]fA!>)!!mf! B/^c/B/A/^G/F/ | %286
 ^G^cG A/B/A/G/F/E/ |!>(! FBF ^GBd!>)! |!p! ^c/"_cresc."e/A/e/c/e/ d/f/A/f/d/f/ | %289
 e/g/A/g/e/g/ f/a/A/a/f/a/ | e/g/A/g/e/g/ f/a/A/a/f/a/ | e/g/A/g/e/g/ f/a/A/a/f/a/ | %292
 [A^c][Ac][Ae] [Ac][Ae][Aa] | a/c'/d/c'/a/c'/ a/c'/d/c'/a/c'/ |!f! b/c'/d'/c'/b/a/ g/a/b/a/g/f/ | %295
 e/f/g/f/e/d/ ^c/d/e/d/c/B/ | A/B/A/G/F/G/ E/F/G/A/B/^c/ | d/B/A/G/F/E/ D3 ::!mf! DF[DA] [^CA]EA | %299
 DF[DA] [^CA]FA |"_cresc." [EB][GB][EB] [^DB][FB]B | [EB][GB][EB] [B,B][FB]B | %302
!f! (c/e/4f/4g/)e/^d/e/ c/e/g/e/d/e/ | (B/e/4f/4g/)e/^d/e/ A/e/g/e/d/e/ | %304
 (B/e/4f/4g/)e/^d/e/ A/e/g/e/d/e/ | (B/e/4f/4g/)e/B/^d/ e/c/B/A/G/F/ | %306
!f! E/^D/E/F/G/A/ B/c/B/A/G/F/ | GBe ^d/e/d/^c/B/A/ | GBe ^d/e/d/^c/B/A/ | GBe ^d/e/d/^c/B/A/ | %310
 g/a/g/f/e/d/ ^c/B/c/d/e/c/ | f/g/f/e/d/^c/ B/^A/B/c/d/B/ | e/f/e/!>(!d/^c/B/ ^A/^G/A/B/c/A/!>)! | %313
!mf! B[Fd][df] [^C^A][E^c][Af] | [Bd][Ff][Bd] F^cf |!f! B/^A/B/^c/d/e/ f/g/f/e/d/c/ | %316
 [FB][Fd]F!>(! [F^c][Fe]F!>)! |!mf! d/e/d/^c/B/^A/ G/F/G/A/B/G/ | ^c/d/c/B/A/G/ F/E/F/G/A/F/ | %319
 B/^c/B/A/G/F/!>(! E/D/E/F/G/B/!>)! |!p! ^A/"_cresc."^c/F/c/A/c/ B/d/F/d/B/d/ | %321
 ^c/e/F/e/c/e/ d/f/B/f/d/f/ | e/^A/e/A/e/A/ d/B/d/B/d/B/ | e/^A/e/A/e/A/ d/B/d/B/d/B/ | %324
 ^c/e/^A/e/c/e/ c/e/A/e/c/e/ | f/a/B/a/f/a/ f/a/B/a/f/a/ |!f! g/a/b/a/g/f/ e/f/g/f/e/d/ | %327
 ^c/d/e/d/c/B/ ^A/B/c/B/A/^G/ | F/G/F/E/D/E/ ^C/D/E/F/^G/^A/ | B/G/F/E/D/^C/ B,/C/D/E/F/G/ | %330
!mf! [FA][FA][FA] [FA][FA][FA] | A/c/B/A/G/F/ G/F/E/F/G/A/ | B/c/d/c/B/A/ ^G/A/B/A/G/F/ | %333
 E/^G/A/B/c/d/ e/d/c/B/c/A/ |!f! [d=f][df][df] f/G/B/d/B/G/ | [ce][ce][ce] e/F/A/c/A/F/ | %336
!p! [Fd]"_cresc."[Fd][Fd] [Ee][Ee][Ee] | [d=f][df][df] [cg][cg][dg] | [Bg][Bg][Bg] [cg][cg][cg] | %339
 [Bg][Bg][Bg] [cg][cg][cg] |!f! c/_e/A/e/(c/B/ c/)e/A/e/c/e/ | [=FG][FB][Fd] [FB][Fd][FB] | %342
!mf! (B/c/4d/4)e/c/B/c/ A/c/e/c/B/c/ | (G/c/4d/4)e/c/B/c/ =F/c/e/c/B/c/ | %344
 (G/c/4d/4)e/c/B/c/ A/c/e/c/B/c/ | (G/c/4d/4)e/c/G/B/!<(! c/A/G/=F/E/D/!<)! | %346
!f! C/B,/C/D/E/=F/ G/A/G/F/E/D/ | EGc B/A/G/=F/E/D/ | C/B,/C/D/E/=F/ G/A/G/F/E/D/ | %349
 [G,C][EG][Gc] [Gd][G=f]G | [CG]c[EG] A/B/A/G/F/E/ | [B,F]B[DF] G/A/G/F/E/D/ | %352
!<(! [A,E]A[CE] [DF]A[Ad]!<)! |!ff! B/A/G/A/B/c/ d/e/d/c/B/A/ | Bdg f/g/f/e/d/c/ | %355
 Bdg f/g/f/e/d/c/ | Bdg f/g/f/e/d/c/ | b/c'/b/a/g/f/ e/d/e/f/g/e/ | a/b/a/g/f/e/ d/c/d/e/f/d/ | %359
 g/a/g/f/e/d/!>(! c/B/c/d/e/B/!>)! |!p! [Dc]"_cresc."[DA][DF] [Dd][DB][DG] | %361
 [Dc][DA][DF] [DB][DG]D | [DA][DF]D [DB][DG]D | f/a/d/a/f/a/ g/b/d/b/g/b/ | %364
!f! [df]!<(![DF][DA] [DF][DA][Dc]!<)! | d/=f/G/f/d/f/ d/f/G/f/d/f/ | %366
!ff! e/=f/g/f/e/d/ c/d/e/d/c/B/ | A/B/c/B/A/G/ F/G/A/G/F/E/ | D/E/D/C/B,/C/ A,/B,/C/D/E/F/ | %369
 G/B/d/G/B/d/ g/d/B/G/G, :| %370
V:2
 G,,2 | G,,2 G,2 G,2 G,,2 | G,,2 G,2 G,2 G,,2 | G,,2 G,F, G,B,A,G, | D,2 D^C D2 D,2 | %5
 D,2 D^C D2 D,2 | D,2 D^C D2 F,2 | G,2 E,2 ^C,2 D,2 | E,2 D,C, B,,2 A,,G,, | C,2 B,,A,, G,,2 G,F, | %10
 E,2 D,C, B,,2 ^C,2 | D,2 D,2 D,2 D,E, | F,2 G,2 A,2 F,2 | G,2 C2 D2 D,2 | G,2 F,E, D,C,B,,A,, | %15
 B,,2 A,,G,, D,2 D,2 | G,2 D2 G2 BA | B2 GF G2 DC | D2 B,A, B,2 DC | B,CB,A, G,2 E,2 | %20
 A,DFE F2 ^C2 | D2 D2 z2 ^C2 | D2 A,2 D,2 E,2 | F,2 B,2 G,2 A,2 | B,2 A,G, F,2 E,D, | %25
 G,2 F,E, D,2 D^C | B,2 A,G, F,2 ^G,2 | A,2 [A,,A,]2 [A,,A,]2 A,B, | ^C2 D2 E2 C2 | %29
 D2 G,2 A,2 A,,2 | D,2 DC B,CB,A, | G,2 B,A, B,2 G,F, | G,2 D,C, D,2 G,F, | G,2 D,2 G,B,A,G, | %34
 F,A,D,E, F,G,A,G, | F,A,D,E, F,G,A,G, | F,A,D,E, F,G,F,E, | F,2 A,G, A,2 D^C | D2 F,E, F,2 D^C | %39
 D2 D,E, F,2 ^G,2 | A,2 A,^G, A,2 A,2 | G,B,E,F, G,A,B,^C | D2 D,E, F,2 ^G,2 | A,2 B,A, B,2 E,D, | %44
 E,2 A,G, A,2 D,^C, | D,2 E,F, G,2 A,2 | D,2 D^C D2 D,^C, | D,2 D^C D2 D,^C, | D,2 D^C D2 D,^C, | %49
 D,^C,D,E, D,A,D,B, | CB,CD CB,CA, | G,F,G,A, G,B,G,C | G,F,G,A, G,DG,E | B,A,B,C B,D,CE, | %54
 B,A,B,C B,=F,CE, | =F,E,F,G, F,CD,B, | CG,A,B, CB,CD |[K:bass] E,2 A,G, A,2 D,C, | %58
 D,2 G,^E, G,2 D,B,, | C,2 =F,E, F,E,D,C, | B,,G,,B,,C, D,C,B,,A,, | G,,2 D,2 G,2 =F,2 | %62
 (E,D,E,)=F, C,2 CB, | C2 G,=F, G,2 CB, | C2 E,D, E,2 CB, | C2 C,D, E,2 [C,C]2 | %66
 [B,,B,]2 [G,,G,]2 z2 G,F, | G,2 D,C, D,2 G,F, | G,2 B,,A,, B,,2 G,F, | G,2 G,,A,, B,,2 ^C,2 | %70
 D,^C,D,E, D,F,D,G, | D,^C,D,E, D,A,D,B, | D,^C,D,E, D,CD,D | B,2 D,2 F,2 D,2 | %74
 G,2 B,,A,, B,,2 G,,F,, | G,,2 G,2 B,,2 D,C, | D,2 G,F, G,2 B,A, | B,2 G,F, G,2 D,C, | %78
 D,2 B,,A,, B,,2 G,F, | G,2 G,,A,, B,,2 ^C,2 | D,^C,D,E, D,F,D,G, | D,^C,D,E, D,A,D,B, | %82
 D,^C,D,E, D,CD,D | [D,G,]2 [E,G,]2 [C,C]2 D,2 | E,2 D,C, B,,2 A,,G,, | C,2 B,,A,, G,,2 G,F, | %86
 E,2 D,C, B,,2 ^C,2 | D,2 D,,2 D,,2 D,E, | F,2 G,2 A,2 D,2 | G,2 C,2 D,2 D,2 | %90
 G,2 F,E, D,C,B,,A,, | B,,2 A,,G,, D,2 D,,2 | G,,2 F,E, D,C,B,,A,, | (B,,A,, B,,2) z2 z2 | %94
 (B,,A,, B,,2) z4 | (C,B,, C,2) z4 | (C,B,, C,2) z4 | (A,,G,, A,,2) z4 | (A,,G,, A,,2) z4 | %99
 G,,2 F,,2 E,,2 A,,2 | D,2 ^C,B,, A,,G,,F,,E,, | (F,,E,, F,,2) z4 | (F,,E,, F,,2) z4 | %103
 (^D,^C, D,2) z4 | (^D,^C, D,2) z4 | (F,E, F,2) z4 | (F,E, F,2) z2 E,^D, | E,2 B,,A,, B,,2 G,,F,, | %108
 G,,2 E,,^D,, E,,2 G,,F,, | E,,2 E,,F,, G,,2 A,,2 | B,,^A,,B,,^C, B,,^D,B,,E, | %111
 B,,^A,,B,,^C, B,,F,B,,G, | B,,^A,,B,,^C, B,,A,B,,B, | G,2 F,E, F,2 E,^D, | %114
 [C,C]3 [B,,B,] [A,,A,][G,,G,][F,,F,][E,,E,] | ^D,2 E,2 A,,2 B,,2 | G,B,E,F, G,A,B,A, | %117
 G,B,E,F, G,A,B,A, | G,B,E,F, G,A,B,A, | E,F,G,F, E,D,^C,B,, | A,,2 A,,^G,, A,,2 E,,2 | %121
 A,,2 A,,^G,, A,,2 E,,2 | A,,2 A,,^G,, A,,2 E,,2 | A,,B,,^C,B,, A,,G,,F,,E,, | D,A,D,E, F,G,A,G, | %125
 D,A,D,E, F,G,A,G, | D,A,D,E, F,G,A,G, | F,G,F,E, D,C,B,,A,, | G,,2 G,F, G,2 D,2 | %129
 B,,2 G,F, G,2 F,2 | G,D,G,,A,, B,,C,D,C, | B,,D,G,,A,, B,,C,D,C, | B,,C,D,C, B,,A,,G,,F,, | %133
 (E,,D,, E,,2) z4 | (E,,D,, E,,2) z4 | (^C,B,, C,2) z4 | (^C,B,, C,2) z4 | (G,,F,, G,,2) z4 | %138
 (G,,F,, G,,2) z2 B,,2 | B,,2 B,2 B,2 B,,2 | B,,2 B,2 B,2 B,,2 | B,,2 B,A, G,2 F,E, | %142
 D,2 ^C,B,, ^A,,2 F,,2 | B,,2 B,A, G,2 F,E, | D,^C,D,E, D,E,D,C, | B,,2 G,2 E,2 F,2 | %146
 G,3 F, E,D,^C,B,, | D,2 E,2 F,2 F,,2 | B,,2 B,^A, B,2 D^C | D2 F,E, F,2 B,^A, | %150
 B,2 D,^C, D,2 B,,C, | E,2 G,F, G,2 ^C,B,, | ^C,2 F,E, F,2 B,,^A,, | B,,2 E,2 E,2 F,,2 | %154
 B,,2 C,2 B,,2 G,F, | G,2 D,C, D,2 G,F, | G,2 B,,A,, B,,2 G,F, | G,2 G,,A,, B,,2 ^C,2 | D,4 z4 | %159
 D,4 F,4 | A,4 z2 A,2 | F,2 A,2 D,F,E,D, | ^C,D,E,D, C,B,,A,,G,, | F,,E,,F,,G,, F,,A,,E,,G,, | %164
 F,,4 z2 F,2 | G,F,G,A, G,B,F,A, | G,A,B,A, G,F,E,^D, | E,^D,E,F, E,G,D,F, | E,F,G,F, E,D,C,B,, | %169
 C,B,,A,,C, B,,D,C,B,, | A,,B,,C,D, E,F,G,A, | G,,4 B,,4 | D,4 z2 D,2 | B,,2 G,F, E,2 A,2 | %174
 [D,D]2 [C,C]2 [B,,B,]2 [A,,A,]2 | [G,,G,]2 [=F,,=F,]2 [E,,E,]2 [D,,D,]2 | %176
 [C,C]2 [_B,,_B,]2 [A,,A,]2 [G,,G,]2 | [F,,F,]2 [E,,E,]2 [D,,D,]2 [^C,,^C,]2 | %178
 [B,,B,]2 [A,,A,]2 [G,,G,]2 [F,,F,]2 | [E,,E,]2 [D,,D,]2 [C,,C,]2 [B,,,B,,]2 | %180
 ([D,=F,][C,E,] [D,F,]2) z4 | ([D,=F,][C,E,] [D,F,]2) z4 | ([F,A,][E,G,] [F,A,]2) z4 | %183
 ([F,A,][E,G,] [F,A,]2) z4 | ([^G,B,][F,A,] [G,B,]2) z4 | ([^G,B,][F,A,] [G,B,]2) z4 | %186
 ([F,A,][E,^G,] [F,A,]2) z4 | ([F,A,][E,^G,] [F,A,]2) z4 | ([D,E,][C,=F,] [D,E,]2) z4 | %189
 ([D,E,][C,=F,] [D,E,]2) z4 | ([D,^G,][C,F,] [D,G,]2) z4 | ([D,^G,][C,F,] [D,G,]2) z4 | %192
 [A,,E,]2 A,^G, A,2 A,,^G,, | A,,2 =F,,E,, F,,2 [C,A,]2 | [D,G,B,]2 G,F, G,2 B,,A,, | %195
 B,,2 E,,D,, E,,2 [B,,G,]2 | [C,=F,A,]2 F,E, F,2 B,,^A,, | B,,2 =F,,E,, F,,2 [B,,E,B,]2 | %198
 [B,,E,]2 [D,^G,][E,A,] [D,G,]2 [G,B,][A,C] | [^G,B,]2 [B,D][CE] [B,D]2 [E,=G,]2 | %200
 C,2 D,2 E,2 E,,2 | A,,4 z2 A,^G, | A,2 E,D, E,2 A,^G, | A,2 C,B,, C,2 A,G, | %204
 A,2 A,,B,, ^C,2 ^D,2 | E,2 E,,2 z2 E,^D, | E,2 B,,A,, B,,2 E,^D, | E,2 G,,F,, G,,2 E,D, | %208
 E,2 E,,F,, G,,2 A,,2 | B,,A,,B,,C, B,,C,B,,A,, | G,,4 z2 D,2 | G,F,G,A, G,B,A,C | %212
 B,CB,A, G,B,A,G, | F,B,A,G, F,G,F,E, | ([F,A,][E,G,] [F,A,]2) z4 | ([F,A,][E,G,] [F,A,]2) z4 | %216
 ([B,D][A,C] [B,D]2) z4 | ([B,D][A,C] [B,D]2) z4 | ([E,B,][=F,A,] [E,B,]2) z4 | %219
 ([E,B,][=F,A,] [E,B,]2) z4 | ([E,^C][D,B,] [E,C]2) z4 | ([E,^C][D,B,] [E,C]2) z4 | %222
 ([A,C][G,B,] [A,C]2) z4 | ([A,C][G,B,] [A,C]2) z4 | ([D,=F,][C,G,] [D,F,]2) z4 | %225
 ([D,=F,][C,G,] [D,F,]2) z4 | (^C,D,C,)_B, G,E,C,G,, | (^C,D,C,)_B, G,E,C,G,, | %228
 (D,_E,D,)_B, G,D,B,,G,, | (D,_E,D,)_B, G,D,B,,G,, | (D,_E,D,)^C _B,G,=E,^C, | %231
 (D,_E,D,)^C _B,G,=E,^C, | (D,_E,D,)D _B,G,D,_B,, | (D,_E,D,)D _B,G,D,_B,, | (D,_E,D,)_E CA,F,B,, | %235
 (D,_E,D,)_E CA,F,B,, | [D,G,_B,]2 G,F, G,2 G,,F,, | G,,2 _E,,D,, E,,2 [_B,,G,]2 | %238
 [C,F,A,]2 =F,_E, F,2 =F,,E,, | =F,,2 D,,C,, D,,2 [_B,,=F,]2 | [_B,,_E,G,]2 E,D, E,2 _E,,D,, | %241
 _E,,2 C,,D,, C,,2 [G,,_E,G,]2 | A,F,D,E, F,G,A,_B, | A,CF,G, A,_B,CD | A,C,A,,B,, C,D,E,F, | %245
 _B,,D,G,,A,, B,,C,D,E, | F,A,D,E, F,G,A,_B, | CA,F,G, A,B,CD | %248
 [_E,_E]3 [D,D] [C,C][_B,,_B,][A,,A,][G,,G,] | [D,F,]2 G,2 D,2 D,,2 |[K:bass-8] G,,2 G,2 G,2 G,,2 | %251
 G,,2 G,2 G,2 G,,2 | G,,2 G,F, E,2 A,2 | D,2 D^C D2 D,2 | D,2 D^C D2 D,2 | D,2 D^C D2 F,2 | %256
 G,2 E,2 C,2 D,2 | E,2 D,C, B,,2 A,,G,, | C,2 B,,A,, G,,2 G,F, | E,2 D,C, B,,2 ^C,2 | %260
 D,2 D,,2 D,,2 D,E, | F,2 G,2 A,2 F,2 | G,2 C2 D2 D,2 | G,2 G,F, G,2 B,A, | B,2 D,C, D,2 G,F, | %265
 G,2 B,A, B,2 DC |[K:bass] D,2 G,F, G,2 B,A, | G,2 F,E, D,C,B,,A,, | G,,2 A,,B,, C,D,E,F, | %269
 G,2 F,E, D,C,B,,A,, | B,,2 A,,G,, D,2 D,,2 | !fermata!G,,6 z2 |] [C,E,A,C]8 | [F,B,^C]8 |] %274
[M:6/8] z6 | G,/F,/G,/A,/B,/C/ D/E/D/C/B,/A,/ | G,/F,/G,/A,/B,/C/ D/E/D/C/B,/A,/ | %277
 G,/F,/G,/A,/B,/C/ D/E/D/C/B,/A,/ | G,/F,/G,/A,/B,/G,/ C/D/C/B,/A,/G,/ | %279
 F,/E,/F,/G,/A,/F,/ B,/^C/B,/A,/G,/F,/ | E,/D,/E,/F,/G,/E,/ A,/B,/A,/G,/F,/E,/ | %281
 F,/E,/D,/E,/F,/G,/ A,/B,/A,/G,/F,/E,/ | D,/^C,/D,/E,/F,/G,/ A,/B,/A,/G,/F,/E,/ | %283
 [A,,D,]F,A, [E,,A,,]F,A, | D,/^C,/D,/E,/F,/G,/ A,/B,/A,/G,/F,/E,/ | %285
 D,/^C,/D,/E,/F,/D,/ G,/A,/G,/F,/E,/D,/ | ^C,/B,,/C,/D,/E,/C,/ F,/G,/F,/E,/D,/C,/ | %287
 B,,/A,,/B,,/^C,/D,/B,,/ E,/F,/E,/D,/C,/B,,/ | [A,,^C,][A,,E,][A,,A,] [A,,D,][A,,F,][A,,A,] | %289
 [A,,G,][A,,E,][A,,^C,] [A,,F,][A,,D,]A,, | [A,,E,][A,,^C,]A,, [A,,F,][A,,D,]A,, | %291
 ^C,/E,/A,,/E,/C,/E,/ D,/F,/A,,/F,/D,/F,/ | E,/G,/A,,/G,/E,/G,/ E,/G,/A,,/G,/E,/G,/ | %293
 [D,F,][D,F,][A,,F,A,] [D,F,][F,A,][F,A,D] | [D,G,B,D]3 z2 z | [C,E,G,C]3 z2 z | %296
 [A,,F,][A,,E,][A,,D,] [F,A,]2 G,, | [F,,D,F,]6 :: D,/^C,/D,/E,/F,/G,/ A,/B,/A,/G,/F,/E,/ | %299
 D,/^C,/D,/E,/F,/G,/ A,/B,/A,/G,/F,/E,/ | G,/F,/E,/F,/G,/A,/ B,/^C/B,/A,/G,/F,/ | %301
 G,/B,/A,/G,/F,/E,/ ^D,/E,/D,/^C,/B,,/A,,/ | [G,,B,,]E,G, [A,,^C,]E,G, | B,,E,G, [A,,C,]E,G, | %304
 [G,,B,,]E,G, [A,,C,]E,G, | B,,E,[B,,^D,] [E,G,]2 z | E,G,B, ^D,F,B, | %307
 E,/^D,/E,/F,/G,/A,/ B,/C/B,/A,/G,/F,/ | E,/^D,/E,/F,/G,/A,/ B,/C/B,/A,/G,/F,/ | %309
 E,/^D,/E,/F,/G,/A,/ B,/C/B,/A,/G,/F,/ | E,/^D,/E,/F,/G,/E,/ A,/B,/A,/G,/F,/E,/ | %311
 D,/^C,/D,/E,/F,/D,/ G,/A,/G,/F,/E,/D,/ | ^C,/B,,/C,/D,/E,/C,/ F,/G,/F,/E,/D,/C,/ | %313
 D,/^C,/B,,/C,/D,/E,/ F,/G,/F,/E,/D,/C,/ | B,,/^A,,/B,,/^C,/D,/E,/ F,/G,/F,/E,/D,/C,/ | %315
 B,,[F,,D,][D,F,] [^C,,A,,][E,,^C,][^A,,F,] | B,,/^A,,/B,,/^C,/D,/E,/ F,/G,/F,/E,/D,/C,/ | %317
 B,,/^A,,/B,,/^C,/D,/B,,/ E,/F,/E,/D,/C,/B,,/ | A,,/G,,/A,,/B,,/^C,/A,,/ D,/E,/D,/C,/B,,/A,,/ | %319
 G,,/F,,/G,,/A,,/B,,/G,,/ ^C,/D,/C,/B,,/A,,/G,,/ | [F,,F,]2 [F,,^C,] [F,,F,]2 [F,,D,] | %321
 [F,,F,]2 [F,,^C,] [F,,F,]2 [F,,B,,] | [F,,^A,,]2 [F,,F,] [F,,D,]2 [A,,F,] | %323
 [F,,F,][F,,F,][F,,F,] [F,,F,][F,,F,][F,,F,] | F,,[F,,^A,,][F,,^C,] [F,,A,,][F,,C,][F,,F,] | %325
 [F,,B,,][F,,^D,][F,,F,] [F,,D,][F,,F,][F,B,] | [B,,E,G,]2 z B,,B,,B,, | [B,,D,F,]2 z F,F,F, | %328
 D,^C,B,, F,2 F,, | B,,D,F, B,A,/G,/F,/E,/ | F,/G,/A,/G,/F,/E,/ ^D,/E,/F,/E,/D,/C,/ | %331
 B,,/^D,/E,/F,/G,/A,/ B,/A,/G,/A,/B,/C/ | [B,D][B,D][B,D] [B,D][B,D][B,D] | DE/D/C/B,/ CA, z | %334
 F,/D,/F,/A,/F,/D,/ B,F,D, | E,/C,/E,/G,/E,/C,/ A,E,C, | %336
 B,,/D,/G,,/D,/B,,/D,/ C,/E,/G,,/E,/C,/E,/ | D,/=F,/G,,/F,/D,/F,/ E,/G,/G,,/G,/E,/G,/ | %338
 =F,/G,,/F,/G,,/F,/G,,/ E,/B,,/E,/B,,/E,/C,/ | D,/G,,/D,/G,,/D,/G,,/ B,,/G,,/B,,/G,,/B,,/G,,/ | %340
 [C,,F,,][^D,,F,,][F,,A,,] [D,,F,,][F,,A,,][F,,C,] | %341
 B,,/D,/G,,/D,/(B,,/A,,/ B,,/)D,/G,,/D,/B,,/D,/ | [C,,B,,][C,,C,][C,E,] [C,,A,,][C,,C,][C,E,] | %343
 [C,,G,,][C,,C,][C,E,] [C,,^E,,][C,,C,][C,E,] | [C,,G,,][C,,C,][C,E,] [C,,A,,][C,,C,][C,E,] | %345
 [C,,G,,][C,,C,][C,,B,,] [C,,C,][C,,G,,][C,,E,,] | C,,E,,G,, B,,,D,,G,, | %347
 C,/B,,/C,/D,/E,/=F,/ G,/A,/G,/F,/E,/D,/ | E,G,C A,/B,/A,/G,/=F,/E,/ | %349
 C,/B,,/C,/D,/E,/=F,/ G,/A,/G,/F,/E,/D,/ | C,/B,,/C,/D,/E,/C,/ F,/G,/F,/E,/D,/C,/ | %351
 B,,/A,,/B,,/C,/D,/B,,/ E,/F,/E,/D,/C,/B,,/ | A,,/G,,/A,,/B,,/C,/A,,/ D,/E,/D,/C,/B,,/A,,/ | %353
 G,,[B,,D,][C,G,] [F,,A,,][A,,C,][D,,F,,] | G,,/F,,/G,,/A,,/B,,/C,/ D,/E,/D,/C,/B,,/A,,/ | %355
 G,,/F,,/G,,/A,,/B,,/C,/ D,/E,/D,/C,/B,,/A,,/ | G,,/F,,/G,,/A,,/B,,/C,/ D,/E,/D,/C,/B,,/A,,/ | %357
 G,,/F,,/G,,/A,,/B,,/G,,/ C,/D,/C,/B,,/A,,/G,,/ | %358
 G,,/F,,/G,,/A,,/B,,/F,,/ B,,/C,/B,,/A,,/G,,/F,,/ | %359
 E,,/D,,/E,,/F,,/G,,/E,,/ A,,/B,,/A,,/G,,/F,,/E,,/ | %360
 F,,/A,,/D,,/A,,/F,,/A,,/ G,,/B,,/D,,/B,,/G,,/B,,/ | A,,/C,/D,,/C,/A,,/C,/ B,,/D,/D,,/D,/B,,/D,/ | %362
 C,/F,,/C,/F,,/C,/F,,/ B,,/G,,/B,,/G,,/B,,/G,,/ | C,/F,,/C,/F,,/C,/F,,/ B,,/G,,/B,,/G,,/B,,/G,,/ | %364
 A,,/C,/F,,/C,/A,,/C,/ A,,/C,/F,,/C,/A,,/C,/ | B,,/D,/F,,/D,/B,,/D,/ B,,/D,/F,,/D,/B,,/D,/ | %366
 [C,E,A,]2 z [C,E,][E,G,][A,C] | [D,F,B,]2 z [D,,A,,][F,,D,][A,,F,] | %368
 [G,B,][F,A,][E,G,] [B,,D,]2 D,, | [D,,G,,D,]6 :| %370
V:3
 x2 | x8 | x8 | x8 | x8 | x8 | x8 | x8 | x8 | x8 | x8 | x8 | x8 | x8 | x8 | x8 | x8 | x8 | x8 | %19
 x8 | x8 | x8 | x8 | x8 | x8 | x8 | x8 | x8 | x8 | x8 | x8 | x8 | x8 | x8 | x8 | x8 | x8 | x8 | %38
 x8 | x8 | x8 | x8 | x8 | x8 | x8 | x8 | x8 | x8 | x8 | x8 | x8 | x8 | x8 | x8 | x8 | x8 | x8 | %57
[K:bass] x8 | x8 | x8 | x8 | x8 | x8 | x8 | x8 | x8 | x8 | x8 | x8 | x8 | x8 | x8 | x8 | x8 | x8 | %75
 x8 | x8 | x8 | x8 | x8 | x8 | x8 | x8 | x8 | x8 | x8 | x8 | x8 | x8 | x8 | x8 | x8 | x8 | x8 | %94
 x8 | x8 | x8 | x8 | x8 | x8 | x8 | x8 | x8 | x8 | x8 | x8 | x8 | x8 | x8 | x8 | x8 | x8 | x8 | %113
 x8 | x8 | x8 | x8 | x8 | x8 | x8 | x8 | x8 | x8 | x8 | x8 | x8 | x8 | x8 | x8 | x8 | x8 | x8 | %132
 x8 | x8 | x8 | x8 | x8 | x8 | x8 | x8 | x8 | x8 | x8 | x8 | x8 | x8 | x8 | x8 | x8 | x8 | x8 | %151
 x8 | x8 | x8 | x8 | x8 | x8 | x8 | x8 | x8 | x8 | x8 | x8 | x8 | x8 | x8 | x8 | x8 | x8 | x8 | %170
 x8 | x8 | x8 | x8 | x8 | x8 | x8 | x8 | x8 | x8 | x8 | x8 | x8 | x8 | x8 | x8 | x8 | x8 | x8 | %189
 x8 | x8 | x8 | x8 | x8 | x8 | x8 | x8 | x8 | x8 | x8 | x8 | x8 | x8 | x8 | x8 | x8 | x8 | x8 | %208
 x8 | x8 | x8 | x8 | x8 | x8 | x8 | x8 | x8 | x8 | x8 | x8 | x8 | x8 | x8 | x8 | x8 | x8 | x8 | %227
 x8 | x8 | x8 | x8 | x8 | x8 | x8 | x8 | x8 | x8 | x8 | x8 | x8 | x8 | x8 | x8 | x8 | x8 | x8 | %246
 x8 | x8 | x8 | x8 |[K:bass-8] x8 | x8 | x8 | x8 | x8 | x8 | x8 | x8 | x8 | x8 | x8 | x8 | x8 | %263
 x8 | x8 | x8 |[K:bass] x8 | x8 | x8 | x8 | x8 | x8 |] x8 | x8 |][M:6/8] x6 | x6 | x6 | x6 | x6 | %279
 x6 | x6 | x6 | x6 | x6 | x6 | x6 | x6 | x6 | x6 | x6 | x6 | A,,A,,A,, A,,A,,A,, | %292
 A,,A,,A,, A,,A,,A,, | x6 | x6 | x6 | x6 | x6 :: x6 | x6 | x6 | x6 | x6 | x6 | x6 | x6 | x6 | x6 | %308
 x6 | x6 | x6 | x6 | x6 | x6 | x6 | x6 | x6 | x6 | x6 | x6 | x6 | x6 | x6 | x6 | x6 | x6 | x6 | %327
 x6 | x6 | x6 | x6 | x6 | x6 | x6 | x6 | x6 | x6 | x6 | x6 | x6 | x6 | x6 | x6 | x6 | x6 | x6 | %346
 x6 | x6 | x6 | x6 | x6 | x6 | x6 | x6 | x6 | x6 | x6 | x6 | x6 | x6 | x6 | x6 | x6 | x6 | x6 | %365
 x6 | x6 | x6 | x6 | x6 :| %370

